pages/Absolute/img/Sberbank.svg

<svg width="227" height="43" viewBox="0 0 227 43" fill="none" xmlns="http://www.w3.org/2000/svg">
<g clip-path="url(#clip0)">
<path d="M59.1839 26.5261C60.1546 27.5479 61.3301 28.3529 62.6333 28.8885C64.2196 29.4801 65.9028 29.7679 67.5954 29.7371C68.5637 29.7371 69.4692 29.6166 70.2125 29.5537C70.955 29.4575 71.685 29.2819 72.39 29.0299C73.0547 28.8466 73.5991 28.5428 74.1435 28.3647C74.5742 28.1189 75.018 27.8968 75.473 27.6994L74.7977 26.2799C74.4366 26.4632 74.0702 26.6413 73.6462 26.8037C73.2518 26.9852 72.8482 27.1461 72.4371 27.2856C71.9477 27.4506 71.4394 27.5527 70.9244 27.5894C70.2637 27.6978 69.5937 27.7381 68.9249 27.7099C67.7185 27.7549 66.5236 27.461 65.4755 26.8613C64.5928 26.311 63.8479 25.5656 63.298 24.6822C62.779 23.6548 62.4257 22.5516 62.2512 21.4136C62.0532 20.0501 61.9518 18.6743 61.9476 17.2965C61.9476 16.1441 62.068 14.934 62.1308 13.724C62.2224 12.627 62.5152 11.5563 62.9945 10.5654C63.4257 9.64203 64.0675 8.83285 64.8683 8.20302C65.8823 7.56024 67.0599 7.22377 68.2601 7.23396C69.471 7.21808 70.656 7.58467 71.6467 8.28159C72.615 8.94684 73.1594 10.0364 73.4002 11.4926H74.9129V6.84634C74.4313 6.663 73.9445 6.48491 73.4002 6.32252C72.8306 6.13842 72.2426 6.01722 71.6467 5.96109C70.982 5.84061 70.4376 5.84061 69.7728 5.77775C69.2494 5.77775 68.6213 5.65728 68.2026 5.65728C66.4111 5.62823 64.6286 5.91549 62.9369 6.50586C61.5584 7.01584 60.3252 7.85505 59.3446 8.95052C58.364 10.046 57.6655 11.3646 57.31 12.7916C56.8278 14.4641 56.6036 16.2005 56.6453 17.9407C56.6069 19.6016 56.8313 21.2581 57.31 22.8489C57.6247 24.2095 58.2682 25.4722 59.1839 26.5261Z" fill="#2F9A41"/>
<path d="M150.988 28.951C152.072 28.8404 153.123 28.5107 154.076 27.982C155.034 27.4463 155.797 26.6187 156.253 25.6195C156.873 24.2961 157.164 22.8422 157.101 21.3819C157.14 20.2687 156.963 19.1585 156.578 18.1133C156.209 17.2197 155.603 16.4443 154.825 15.8713C153.846 15.2582 152.755 14.8468 151.616 14.6613C150.041 14.3691 148.438 14.2479 146.837 14.2999H144.838V8.72127C144.811 8.51449 144.83 8.30453 144.893 8.10568C144.955 7.90682 145.059 7.72373 145.199 7.56887C145.68 7.38442 146.2 7.32145 146.711 7.38554H149.554C150.282 7.35803 151.011 7.39837 151.731 7.50602C152.212 7.53451 152.675 7.70391 153.061 7.99316C153.441 8.29479 153.734 8.69266 153.909 9.14556C154.185 9.79115 154.408 10.4587 154.573 11.1413H155.746V5.93457H138.473V6.66267C138.593 6.66267 138.656 6.78315 138.954 6.78315C139.258 6.90363 139.441 6.96648 139.478 7.08696C139.602 7.24673 139.705 7.423 139.781 7.61078C139.781 7.91459 139.902 8.13459 139.902 8.57984V26.5048C139.929 26.8327 139.888 27.1627 139.781 27.4739C139.781 27.7777 139.661 27.9558 139.478 27.9977C139.348 28.1623 139.161 28.271 138.954 28.3015C138.806 28.3797 138.641 28.421 138.473 28.422V29.1501H147.188C148.457 29.1496 149.725 29.0832 150.988 28.951ZM145.277 27.2539C145.181 27.1719 145.104 27.0699 145.052 26.9549C144.999 26.84 144.973 26.715 144.974 26.5886C144.974 26.2848 144.853 25.9234 144.853 25.4362V15.688H146.853C148.606 15.688 149.941 16.1699 150.726 17.0814C151.511 17.9928 151.878 19.5014 151.878 21.5652C151.91 22.6663 151.788 23.7664 151.516 24.8338C151.32 25.5327 150.961 26.1752 150.47 26.7091C150.039 27.0441 149.572 27.3288 149.077 27.5577C148.52 27.6784 147.952 27.7399 147.381 27.741C146.858 27.6205 146.335 27.6205 146.052 27.5577C145.765 27.5571 145.488 27.4486 145.277 27.2539Z" fill="#2F9A41"/>
<path d="M126.298 28.4063C126.178 28.4063 126.115 28.2859 125.816 28.2859C125.513 28.1654 125.33 28.1025 125.293 27.982C125.256 27.8616 125.11 27.6782 124.989 27.4582C124.989 27.1544 124.869 26.9344 124.869 26.4892V20.0462H127.23C128.386 20.0405 129.54 19.9388 130.679 19.7424C131.705 19.5794 132.69 19.224 133.584 18.6948C134.458 18.1621 135.154 17.3818 135.584 16.4529C136.12 15.2338 136.369 13.9075 136.311 12.5766C136.33 11.3533 136.104 10.1386 135.646 9.00421C135.181 8.19089 134.536 7.49414 133.762 6.96657C132.932 6.47867 132 6.18834 131.04 6.11799C129.975 5.99322 128.904 5.932 127.832 5.93465H118.614V6.66276C118.734 6.66276 118.797 6.78323 119.101 6.78323C119.404 6.90371 119.582 6.96657 119.624 7.08705C119.749 7.2467 119.851 7.423 119.928 7.61086C119.928 7.91467 120.048 8.13468 120.048 8.57992V26.4473C120.076 26.7752 120.035 27.1053 119.928 27.4163C119.928 27.7201 119.807 27.8982 119.624 27.9401C119.495 28.1047 119.308 28.2135 119.101 28.2439C118.951 28.323 118.784 28.3643 118.614 28.3644V29.0297H126.24L126.298 28.3644V28.4063ZM125.026 8.54325C125.012 8.36046 125.054 8.17772 125.146 8.01944C125.151 7.95003 125.17 7.88233 125.202 7.82027C125.233 7.75822 125.277 7.70305 125.33 7.658C125.474 7.5316 125.661 7.46591 125.853 7.47467C126.157 7.47467 126.376 7.35419 126.9 7.35419C127.468 7.38515 128.034 7.44635 128.596 7.53753C129.112 7.72423 129.585 8.0128 129.988 8.38611C130.386 8.85999 130.712 9.38938 130.956 9.95755C131.162 10.7477 131.264 11.5612 131.26 12.3776C131.26 14.3733 130.956 15.8295 130.412 16.8614C129.868 17.8934 128.842 18.4329 127.387 18.4329H125.026V8.54325Z" fill="#2F9A41"/>
<path d="M115.589 23.8019H114.076C113.945 24.538 113.77 25.2656 113.552 25.981C113.451 26.454 113.195 26.8797 112.825 27.191C112.648 27.3577 112.438 27.4865 112.21 27.5693C111.981 27.6522 111.738 27.6874 111.495 27.6729C110.714 27.7874 109.924 27.8278 109.135 27.7934C108.407 27.829 107.677 27.7886 106.957 27.6729C106.536 27.6247 106.127 27.5023 105.748 27.3115C105.615 27.2383 105.501 27.1338 105.417 27.0069C105.334 26.8801 105.282 26.7347 105.267 26.5834C105.155 26.1493 105.114 25.7 105.146 25.2529V17.8671H109.161C109.522 17.8671 109.888 17.9876 110.312 17.9876C110.7 18.0234 111.085 18.0847 111.464 18.1709C111.799 18.2544 112.124 18.3756 112.432 18.5323V15.5047C112.141 15.6967 111.81 15.8202 111.464 15.8661C110.704 16.0073 109.937 16.1087 109.166 16.1699H105.11V8.46983C105.111 8.11275 105.173 7.75846 105.293 7.4222C105.476 7.23887 105.78 7.23887 106.261 7.23887H108.805C109.533 7.21143 110.262 7.25176 110.982 7.35934C111.461 7.39746 111.92 7.56395 112.312 7.84126C112.692 8.14289 112.985 8.54075 113.16 8.99365C113.436 9.64113 113.659 10.3104 113.825 10.9946H115.034V5.93457H98.886V6.66267C99.0064 6.66267 99.0692 6.78315 99.3675 6.78315C99.6711 6.90363 99.8491 6.96648 99.891 7.08696C100.016 7.24662 100.118 7.42291 100.195 7.61078C100.195 7.91459 100.315 8.13459 100.315 8.57984V26.4472C100.343 26.7751 100.302 27.1051 100.195 27.4162C100.195 27.72 100.074 27.8981 99.891 27.9401C99.7618 28.1047 99.5745 28.2134 99.3675 28.2439C99.219 28.3221 99.0538 28.3634 98.886 28.3643V29.0296H115.589V23.8019Z" fill="#2F9A41"/>
<path d="M90.0506 28.951C91.1349 28.8404 92.1855 28.5107 93.1388 27.982C94.1018 27.4325 94.8811 26.6107 95.379 25.6195C95.9995 24.2962 96.2904 22.8422 96.227 21.3819C96.2662 20.2687 96.0884 19.1585 95.7036 18.1133C95.3348 17.2197 94.7283 16.4443 93.9501 15.8713C92.9717 15.2582 91.8809 14.8468 90.7415 14.6613C89.1662 14.369 87.5639 14.2478 85.9626 14.2999H83.9631V8.72127C83.9374 8.51451 83.9564 8.30463 84.0187 8.10583C84.081 7.90703 84.1852 7.72392 84.3243 7.56887C84.8058 7.38442 85.3253 7.32145 85.837 7.38554H88.6792C89.4072 7.35806 90.1361 7.3984 90.8566 7.50602C91.3355 7.54569 91.7949 7.71398 92.1861 7.99316C92.5664 8.29479 92.8591 8.69266 93.0341 9.14556C93.311 9.79105 93.5334 10.4586 93.6988 11.1413H94.908V5.93457H77.5825V6.66267C77.7029 6.66267 77.7657 6.78315 78.0693 6.78315C78.3729 6.90363 78.5509 6.96648 78.5927 7.08696C78.7176 7.24673 78.8197 7.423 78.8963 7.61078C78.8963 7.91459 79.0167 8.13459 79.0167 8.57984V26.4472C79.04 26.775 78.9991 27.1041 78.8963 27.4162C78.8963 27.72 78.7759 27.8981 78.5927 27.9401C78.4636 28.1047 78.2762 28.2134 78.0693 28.2439C77.9192 28.3229 77.7521 28.3642 77.5825 28.3643V29.2129H86.2976C87.7004 29.1343 88.8362 29.1343 90.0506 28.951ZM84.3609 27.2539C84.2648 27.1719 84.1878 27.0699 84.1353 26.9549C84.0829 26.84 84.0562 26.715 84.0573 26.5886C84.0573 26.2848 83.9369 25.9234 83.9369 25.4362V15.688H85.9364C87.6899 15.688 89.0246 16.1699 89.8098 17.0814C90.5949 17.9928 90.9613 19.5014 90.9613 21.5652C90.9928 22.6662 90.8712 23.7663 90.6002 24.8338C90.4036 25.5327 90.0449 26.1752 89.5533 26.7091C89.123 27.0441 88.6559 27.3289 88.161 27.5577C87.6037 27.6785 87.0353 27.7399 86.4651 27.741C85.9417 27.6205 85.4967 27.6205 85.1356 27.5577C84.9926 27.5627 84.85 27.5383 84.7168 27.4861C84.5835 27.4338 84.4624 27.3548 84.3609 27.2539Z" fill="#2F9A41"/>
<path d="M226.822 35.7295H56.5249V37.9714H226.822V35.7295Z" fill="#2F9A41"/>
<path d="M213.202 20.413C213.689 21.0782 214.05 21.623 214.532 22.1678C214.893 22.6916 215.38 23.3202 215.741 23.8649C216.104 24.4584 216.508 25.0255 216.95 25.5621C217.396 26.1587 217.8 26.7853 218.159 27.4374C218.52 27.9612 218.824 28.6474 219.128 29.1921L226.979 29.3126C226.131 28.464 225.409 27.6155 224.561 26.7669C223.833 25.9183 223.168 25.1954 222.682 24.7083C221.954 23.8597 221.289 23.1368 220.687 22.4663C220.085 21.7959 219.478 21.073 218.934 20.4078C218.373 19.7511 217.849 19.0639 217.364 18.3492C216.94 17.6839 216.317 16.8353 215.851 16.1072L216.212 15.6253C216.736 14.8972 217.421 14.1115 218.212 13.2053C218.933 12.2424 219.722 11.3322 220.572 10.4815C221.338 9.59341 222.15 8.7471 223.006 7.94619C223.693 7.31408 224.42 6.72788 225.184 6.19141H219.735C219.489 6.77496 219.206 7.34188 218.887 7.88857C218.504 8.64205 218.06 9.36219 217.557 10.0414C217.076 10.7696 216.51 11.6129 216.045 12.4615C215.579 13.3101 214.998 14.0329 214.474 14.8239C213.951 15.6148 213.427 16.3377 212.962 16.8825C212.48 17.5477 212.114 18.0349 211.81 18.4539C212.234 19.0773 212.716 19.7477 213.202 20.413Z" fill="#2F9A41"/>
<path d="M212.538 28.4063C212.417 28.4063 212.355 28.2859 212.051 28.2859C211.747 28.1654 211.569 28.1025 211.528 27.982C211.402 27.8224 211.3 27.6461 211.224 27.4582C211.224 27.1544 211.104 26.9344 211.104 26.4892V8.67945C211.075 8.35156 211.116 8.02143 211.224 7.71039C211.224 7.40658 211.344 7.22848 211.528 7.18658C211.687 7.06142 211.863 6.95916 212.051 6.88276C212.201 6.80373 212.368 6.76239 212.538 6.76229V5.97656H204.911V6.70467C205.032 6.70467 205.095 6.82514 205.398 6.82514C205.702 6.94562 205.88 7.00848 205.922 7.12896C206.047 7.2885 206.149 7.46482 206.225 7.65277C206.225 7.95659 206.346 8.17659 206.346 8.62183V26.4892C206.374 26.8171 206.333 27.1472 206.225 27.4582C206.225 27.762 206.105 27.9401 205.922 27.982C205.793 28.1471 205.605 28.2559 205.398 28.2859C205.248 28.3649 205.081 28.4062 204.911 28.4063V29.0716H212.538V28.4063Z" fill="#2F9A41"/>
<path d="M162.027 26.3481C162.331 25.0176 162.875 23.1372 163.597 20.7747H171.04L172.087 23.8024C172.524 24.903 172.874 26.0361 173.134 27.1915C173.387 27.8528 173.549 28.5453 173.616 29.2501H179.546C179.242 28.7682 179.023 28.0977 178.578 27.3748C178.069 26.3131 177.625 25.2216 177.248 24.1062L171.867 8.84223C171.645 8.29553 171.482 7.72656 171.381 7.14507C171.26 6.66316 171.26 6.29649 171.197 5.99268H164.545V6.72078C164.665 6.72078 164.728 6.84126 165.026 6.84126C165.33 6.96174 165.508 7.02459 165.55 7.14507C165.675 7.30465 165.777 7.48096 165.853 7.66889V8.1508C165.858 8.67104 165.755 9.18664 165.55 9.66462L161.797 18.8681C161.132 20.5652 160.467 22.079 160.043 23.1686C159.619 24.2581 159.075 25.3477 158.834 26.0758C158.473 26.8039 158.169 27.4691 157.866 27.951C157.623 28.3425 157.401 28.7464 157.201 29.161H161.435C161.577 28.2125 161.774 27.2732 162.027 26.3481ZM167.355 9.75367L170.402 19.1404H164L167.355 9.75367Z" fill="#2F9A41"/>
<path d="M188.387 28.4062H188.198C188.078 28.4062 188.015 28.2858 187.712 28.2858C187.408 28.1653 187.23 28.1024 187.188 27.982C187.063 27.8222 186.961 27.6459 186.885 27.4581C186.885 27.1543 186.764 26.9343 186.764 26.4891V17.5842H195.783V26.4262C195.811 26.7541 195.77 27.0842 195.662 27.3953C195.662 27.6991 195.542 27.8772 195.359 27.9191C195.23 28.0837 195.042 28.1925 194.835 28.2229C194.687 28.3011 194.522 28.3424 194.354 28.3434V29.0715H201.98V28.3434C201.86 28.3434 201.797 28.2229 201.499 28.2229C201.195 28.1024 201.012 28.0396 200.975 27.9191C200.85 27.7598 200.747 27.5834 200.672 27.3953C200.672 27.0915 200.551 26.8715 200.551 26.4262V8.46983C200.523 8.14194 200.564 7.81181 200.672 7.50078C200.672 7.19696 200.792 7.01887 200.975 6.97696C201.135 6.85192 201.311 6.74967 201.499 6.67315C201.647 6.59494 201.812 6.55361 201.98 6.55267V5.93457H194.479V6.66267C194.6 6.66267 194.663 6.78315 194.961 6.78315C195.265 6.90363 195.448 6.96648 195.484 7.08696C195.609 7.24662 195.712 7.42291 195.788 7.61078C195.788 7.91459 195.908 8.13459 195.908 8.57984V16.0494H187V8.54317C186.972 8.21529 187.013 7.88528 187.12 7.57411C187.12 7.2703 187.24 7.0922 187.424 7.0503C187.583 6.92497 187.759 6.82269 187.947 6.74648C188.093 6.66248 188.26 6.62077 188.429 6.62601V5.93457H180.823V6.66267C180.944 6.66267 181.006 6.78315 181.305 6.78315C181.608 6.90363 181.786 6.96648 181.828 7.08696C181.953 7.24673 182.055 7.423 182.132 7.61078C182.132 7.91459 182.252 8.13459 182.252 8.57984V26.5048C182.276 26.8326 182.235 27.1618 182.132 27.4739C182.132 27.7777 182.011 27.9558 181.828 27.9977C181.699 28.1623 181.512 28.271 181.305 28.3015C181.156 28.3797 180.991 28.421 180.823 28.422V29.1501H188.45L188.387 28.3643V28.4062Z" fill="#2F9A41"/>
<path d="M41.0314 8.35986C40.5446 7.69462 40.063 7.02937 39.6391 6.35889L13.6143 21.3191L1.05199 14.1114C0.763672 14.8891 0.587429 15.7039 0.528564 16.5314L13.7346 24.1843L41.0314 8.35986Z" fill="#2F9A41"/>
<path d="M13.6144 26.9501L0.120434 19.1976C0.0205783 19.6744 -0.0198589 20.1618 4.56898e-05 20.6486C4.56898e-05 26.5758 2.35288 32.2602 6.54095 36.4514C10.729 40.6426 16.4093 42.9971 22.3321 42.9971C28.2549 42.9971 33.9351 40.6426 38.1232 36.4514C42.3113 32.2602 44.6641 26.5758 44.6641 20.6486C44.6891 17.1122 43.8595 13.6223 42.2459 10.4761L13.6144 26.9501Z" fill="#2F9A41"/>
<path d="M37.8228 4.48378C37.1868 3.88303 36.5194 3.31651 35.8233 2.78662L13.6143 15.6882L2.90496 9.57003C2.54379 10.2353 2.17739 10.9634 1.75342 11.7491L13.4939 18.5325L37.8228 4.48378Z" fill="#2F9A41"/>
<path d="M33.6459 1.33586C32.8053 0.832292 31.9309 0.387726 31.0288 0.00537109L13.6143 10.0417L5.81003 5.63638C5.2866 6.1602 4.76317 6.8464 4.23975 7.51164L13.5568 12.8441L33.6459 1.33586Z" fill="#2F9A41"/>
</g>
<defs>
<clipPath id="clip0">
<rect width="227" height="43" fill="white"/>
</clipPath>
</defs>
</svg>

<svg width="227" height="43" fill="none" xmlns="http://www.w3.org/2000/svg">
  <g clip-path="url(#clip0)" fill="#2F9A41">
    <path d="M59.184 26.526a10.002 10.002 0 003.45 2.363c1.586.591 3.269.879 4.961.848.969 0 1.874-.12 2.618-.183a10.464 10.464 0 002.177-.524c.665-.183 1.21-.487 1.754-.665.43-.246.874-.468 1.329-.666l-.675-1.42c-.361.184-.728.362-1.152.525-.394.181-.798.342-1.209.482a6.09 6.09 0 01-1.513.303 9.8 9.8 0 01-2 .12 6.46 6.46 0 01-3.449-.848 6.806 6.806 0 01-2.177-2.179 10.92 10.92 0 01-1.047-3.268 29.27 29.27 0 01-.303-4.117c0-1.153.12-2.363.183-3.573a8.967 8.967 0 01.864-3.159 6.51 6.51 0 011.873-2.362 6.236 6.236 0 013.392-.969 5.755 5.755 0 013.387 1.048c.968.665 1.512 1.754 1.753 3.21h1.513V6.847a21.184 21.184 0 00-1.513-.523 8.203 8.203 0 00-1.753-.362c-.665-.12-1.21-.12-1.874-.183-.524 0-1.152-.12-1.57-.12a15.231 15.231 0 00-5.266.848 9.023 9.023 0 00-5.627 6.286 17.108 17.108 0 00-.665 5.149c-.038 1.66.186 3.317.665 4.908a8.541 8.541 0 001.874 3.677zM150.988 28.951a8.051 8.051 0 003.088-.969 5.163 5.163 0 002.177-2.363 9.068 9.068 0 00.848-4.237 8.586 8.586 0 00-.523-3.269 5.293 5.293 0 00-1.753-2.242 8.673 8.673 0 00-3.209-1.21 22.246 22.246 0 00-4.779-.361h-1.999V8.72a1.426 1.426 0 01.055-.615c.062-.2.166-.382.306-.537a3.136 3.136 0 011.512-.183h2.843c.728-.028 1.457.012 2.177.12.481.029.944.198 1.33.487.38.302.673.7.848 1.153.276.645.499 1.313.664 1.995h1.173V5.935h-17.273v.728c.12 0 .183.12.481.12.304.12.487.183.524.304.124.16.227.336.303.524 0 .304.121.524.121.969v17.925a2.38 2.38 0 01-.121.969c0 .304-.12.482-.303.524a.82.82 0 01-.524.303c-.148.079-.313.12-.481.121v.728h8.715c1.269 0 2.537-.067 3.8-.199zm-5.711-1.697a.859.859 0 01-.303-.665c0-.304-.121-.666-.121-1.153v-9.748h2c1.753 0 3.088.482 3.873 1.393.785.912 1.152 2.42 1.152 4.484a11.843 11.843 0 01-.362 3.269 4.61 4.61 0 01-1.046 1.875 7.18 7.18 0 01-1.393.849 8.078 8.078 0 01-1.696.183c-.523-.12-1.046-.12-1.329-.183-.287 0-.564-.11-.775-.304zM126.298 28.406c-.12 0-.183-.12-.482-.12-.303-.12-.486-.184-.523-.304-.037-.12-.183-.304-.304-.524 0-.304-.12-.524-.12-.969v-6.443h2.361a20.907 20.907 0 003.449-.304 8.24 8.24 0 002.905-1.047 5.168 5.168 0 002-2.242 8.691 8.691 0 00.727-3.876 9.162 9.162 0 00-.665-3.573 6.178 6.178 0 00-1.884-2.037 6.278 6.278 0 00-2.722-.849 26.993 26.993 0 00-3.208-.183h-9.218v.728c.12 0 .183.12.487.12.303.12.481.184.523.304.125.16.227.336.304.524 0 .304.12.524.12.969v17.867c.028.328-.013.658-.12.97 0 .303-.121.481-.304.523a.815.815 0 01-.523.304c-.15.079-.317.12-.487.12v.666h7.626l.058-.666v.042zm-1.272-19.863a.905.905 0 01.12-.524.515.515 0 01.184-.361.74.74 0 01.523-.183c.304 0 .523-.12 1.047-.12a16.04 16.04 0 011.696.183c.516.186.989.475 1.392.848.398.474.724 1.003.968 1.572a9.41 9.41 0 01.304 2.42c0 1.995-.304 3.451-.848 4.483-.544 1.032-1.57 1.572-3.025 1.572h-2.361v-9.89zM115.589 23.802h-1.513a18.74 18.74 0 01-.524 2.179 2.175 2.175 0 01-.727 1.21 1.788 1.788 0 01-1.33.482 12.51 12.51 0 01-2.36.12 10.497 10.497 0 01-2.178-.12 3.598 3.598 0 01-1.209-.361.941.941 0 01-.481-.729 4.142 4.142 0 01-.121-1.33v-7.386h4.015c.361 0 .727.12 1.151.12a8.87 8.87 0 011.152.184c.335.083.66.205.968.361v-3.027a2.309 2.309 0 01-.968.361c-.76.141-1.527.243-2.298.304h-4.056v-7.7c.001-.357.063-.712.183-1.048.183-.183.487-.183.968-.183h2.544c.728-.028 1.457.013 2.177.12.479.038.938.205 1.33.482.38.302.673.7.848 1.153.276.647.499 1.316.665 2h1.209v-5.06H98.886v.729c.12 0 .183.12.482.12.303.12.481.183.523.304.125.16.227.336.304.524 0 .304.12.524.12.969v17.867c.028.328-.013.658-.12.97 0 .303-.121.481-.304.523a.817.817 0 01-.523.304c-.149.078-.314.12-.482.12v.666h16.703v-5.228zM90.05 28.951a8.052 8.052 0 003.089-.969 5.629 5.629 0 002.24-2.363 9.056 9.056 0 00.848-4.237 8.586 8.586 0 00-.523-3.269 5.29 5.29 0 00-1.754-2.242 8.665 8.665 0 00-3.209-1.21 22.232 22.232 0 00-4.778-.361h-2V8.72a1.457 1.457 0 01.361-1.152 3.138 3.138 0 011.513-.183h2.842a11.74 11.74 0 012.178.12c.478.04.938.208 1.33.487.38.302.672.7.847 1.153.277.645.5 1.313.665 1.995h1.209V5.935H77.582v.728c.12 0 .184.12.487.12.304.12.482.183.524.304.125.16.227.336.303.524 0 .304.12.524.12.969v17.867c.024.328-.017.657-.12.97 0 .303-.12.481-.303.523a.817.817 0 01-.524.304c-.15.079-.317.12-.487.12v.849h8.716c1.402-.079 2.538-.079 3.753-.262zm-5.69-1.697a.866.866 0 01-.303-.665c0-.304-.12-.666-.12-1.153v-9.748h2c1.753 0 3.088.482 3.873 1.393.785.912 1.151 2.42 1.151 4.484a11.901 11.901 0 01-.36 3.269 4.612 4.612 0 01-1.048 1.875c-.43.335-.897.62-1.392.849a8.079 8.079 0 01-1.696.183c-.523-.12-.968-.12-1.33-.183a1.048 1.048 0 01-.774-.304zM226.822 35.73H56.525v2.241h170.297V35.73zM213.202 20.413c.487.665.848 1.21 1.33 1.755.361.524.848 1.152 1.209 1.697.363.593.767 1.16 1.209 1.697a16.1 16.1 0 011.209 1.875c.361.524.665 1.21.969 1.755l7.851.12c-.848-.848-1.57-1.697-2.418-2.545a39.337 39.337 0 00-1.879-2.059c-.728-.848-1.393-1.571-1.995-2.242a59.745 59.745 0 01-1.753-2.058 23.388 23.388 0 01-1.57-2.059c-.424-.665-1.047-1.514-1.513-2.242l.361-.482c.524-.728 1.209-1.514 2-2.42a25.356 25.356 0 012.36-2.723 32.884 32.884 0 012.434-2.536 21.26 21.26 0 012.178-1.755h-5.449c-.246.584-.529 1.15-.848 1.698a15.152 15.152 0 01-1.33 2.152c-.481.729-1.047 1.572-1.512 2.42-.466.85-1.047 1.572-1.571 2.363-.523.79-1.047 1.514-1.512 2.059-.482.665-.848 1.152-1.152 1.57a73.25 73.25 0 001.392 1.96z"/>
    <path d="M212.538 28.406c-.121 0-.183-.12-.487-.12-.304-.12-.482-.184-.523-.304a2.139 2.139 0 01-.304-.524c0-.304-.12-.524-.12-.969V8.68a2.328 2.328 0 01.12-.969c0-.303.12-.482.304-.523a2.16 2.16 0 01.523-.304c.15-.08.317-.12.487-.12v-.786h-7.627v.728c.121 0 .184.12.487.12.304.12.482.183.524.304.125.16.227.336.303.524 0 .304.121.524.121.969v17.867c.028.328-.013.658-.121.97 0 .303-.12.481-.303.523a.813.813 0 01-.524.304c-.15.079-.317.12-.487.12v.666h7.627v-.666zM162.027 26.348c.304-1.33.848-3.21 1.57-5.573h7.443l1.047 3.027a22.67 22.67 0 011.047 3.39c.253.66.415 1.353.482 2.058h5.93c-.304-.482-.523-1.152-.968-1.875a29.155 29.155 0 01-1.33-3.269l-5.381-15.264a8.275 8.275 0 01-.486-1.697c-.121-.482-.121-.849-.184-1.152h-6.652v.728c.12 0 .183.12.481.12.304.12.482.184.524.304.125.16.227.336.303.524v.482a3.75 3.75 0 01-.303 1.514l-3.753 9.203c-.665 1.697-1.33 3.211-1.754 4.3-.424 1.09-.968 2.18-1.209 2.908-.361.728-.665 1.393-.968 1.875-.243.392-.465.795-.665 1.21h4.234c.142-.949.339-1.888.592-2.813zm5.328-16.594l3.047 9.386H164l3.355-9.386zM188.387 28.406h-.189c-.12 0-.183-.12-.486-.12-.304-.12-.482-.184-.524-.304a2.174 2.174 0 01-.303-.524c0-.304-.121-.524-.121-.969v-8.905h9.019v8.842c.028.328-.013.658-.121.97 0 .303-.12.481-.303.523a.817.817 0 01-.524.304c-.148.078-.313.12-.481.12v.729h7.626v-.729c-.12 0-.183-.12-.481-.12-.304-.12-.487-.183-.524-.304a2.126 2.126 0 01-.303-.524c0-.303-.121-.523-.121-.969V8.47a2.345 2.345 0 01.121-.97c0-.303.12-.481.303-.523.16-.125.336-.227.524-.304.148-.078.313-.12.481-.12v-.618h-7.501v.728c.121 0 .184.12.482.12.304.12.487.183.523.304.125.16.228.336.304.524 0 .304.12.524.12.969v7.47H187V8.542a2.362 2.362 0 01.12-.969c0-.304.12-.482.304-.524.159-.125.335-.227.523-.304a.91.91 0 01.482-.12v-.691h-7.606v.728c.121 0 .183.12.482.12.303.12.481.183.523.304.125.16.227.336.304.524 0 .304.12.524.12.969v17.925c.024.328-.017.657-.12.969 0 .304-.121.482-.304.524a.815.815 0 01-.523.303 1.05 1.05 0 01-.482.121v.728h7.627l-.063-.786v.042zM41.031 8.36a36.27 36.27 0 01-1.392-2.001l-26.025 14.96-12.562-7.208a8.747 8.747 0 00-.523 2.42l13.206 7.653L41.03 8.36z"/>
    <path d="M13.614 26.95L.12 19.198c-.1.476-.14.964-.12 1.45a22.357 22.357 0 006.54 15.803 22.324 22.324 0 0031.583 0 22.357 22.357 0 006.541-15.802 21.95 21.95 0 00-2.418-10.173L13.614 26.95z"/>
    <path d="M37.823 4.484a24.694 24.694 0 00-2-1.697L13.614 15.688 2.905 9.57c-.361.665-.728 1.393-1.152 2.18l11.74 6.782 24.33-14.048z"/>
    <path d="M33.646 1.336a21.164 21.164 0 00-2.617-1.33L13.614 10.041 5.81 5.636c-.523.524-1.047 1.21-1.57 1.876l9.317 5.332L33.646 1.336z"/>
  </g>
  <defs>
    <clipPath id="clip0">
      <path fill="#fff" d="M0 0h227v43H0z"/>
    </clipPath>
  </defs>
</svg>
